X: 20332
T: John Brosnan's
R: reel
M: 4/4
K: Adorian
E2 AE ABcd|eBde cBAG|EG G2 BG G2|EG G2 AGFA|
E2 AE ABcd|eBde cBAG|e=fed cAAG|EAAE A3 z:|
eAAE ABcd|e2 af gfed|eA A2 eA A2|cdBG DG (3Bcd|
e2 AE ABcd|e2 af gfed|eBde cBAG|EAAE A3 z:|

